public/assets/images/str/au-05.svg

<svg fill="none" height="50" viewBox="0 0 50 50" width="50" xmlns="http://www.w3.org/2000/svg" xmlns:xlink="http://www.w3.org/1999/xlink"><clipPath id="a"><path d="m0 0h50v50h-50z"/></clipPath><g clip-path="url(#a)"><g fill="#bd0f33"><path d="m25 0c-13.8077 0-25 11.1923-25 25s11.1923 25 25 25 25-11.1923 25-25-11.1923-25-25-25zm0 45.3576c-11.2422 0-20.35757-9.1154-20.35757-20.3576s9.11537-20.36089 20.35757-20.36089 20.3576 9.11539 20.3576 20.35759-9.1154 20.3575-20.3576 20.3575z"/><path d="m12.8035 11.5908h4.6092v14.8545c0 .9437.2891 1.7579 1.6018 1.7579 1.2096 0 1.5751-1.0501 1.5751-1.8909v-14.7215h4.6092v14.2497c0 3.3331-1.492 5.9085-6.2142 5.9085-3.908 0-6.1877-1.8643-6.1877-5.9085v-14.2497"/><path d="m27.0195 38.4125v-19.6996h4.6092v15.7517h5.646v3.9479z"/><path d="m18.4263 34.4342h.4785c.2293 0 .6414.0133.6513.5384.0067.535-.432.5583-.5915.5649h-.535v-1.1033m-.0033 1.4124h.5915c.4021 0 .5217.2625.5217.5682 0 .2027.0333.5849.1064.7776h.3954v-.0697c-.0831 0-.1063-.1363-.1196-.1928-.0332-.2293-.0532-.4519-.0665-.6812-.0498-.4088-.1462-.535-.5417-.5716v-.0067c.3556-.0498.575-.3057.5882-.6646.02-.7078-.3888-.874-1.0301-.874h-.7876v3.064h.3389v-1.3459"/></g><path d="m19.0112 38.3125c1.4655 0 2.6519-1.1863 2.6519-2.6518 0-1.4656-1.1864-2.6519-2.6519-2.6519s-2.6518 1.1863-2.6518 2.6519c0 1.4655 1.1863 2.6518 2.6518 2.6518z" stroke="#bd0f33" stroke-width=".352191"/></g></svg>

<svg width="50" height="50" viewBox="0 0 50 50" fill="none" xmlns="http://www.w3.org/2000/svg">
<g clip-path="url(#clip0_2436_206846)">
<path d="M25 0C11.1923 0 0 11.1923 0 25C0 38.8077 11.1923 50 25 50C38.8077 50 50 38.8077 50 25C50 11.1923 38.8077 0 25 0ZM25 45.3576C13.7578 45.3576 4.64243 36.2422 4.64243 25C4.64243 13.7578 13.7578 4.63911 25 4.63911C36.2422 4.63911 45.3576 13.7545 45.3576 24.9967C45.3576 36.2389 36.2422 45.3542 25 45.3542V45.3576Z" fill="#BD0F33"/>
<path d="M12.8035 11.5908H17.4127V26.4453C17.4127 27.389 17.7018 28.2032 19.0145 28.2032C20.2241 28.2032 20.5896 27.1531 20.5896 26.3123V11.5908H25.1988V25.8405C25.1988 29.1736 23.7068 31.749 18.9846 31.749C15.0766 31.749 12.7969 29.8847 12.7969 25.8405V11.5908" fill="#BD0F33"/>
<path d="M27.0195 38.4125V18.7129H31.6287V34.4646H37.2747V38.4125H27.0195Z" fill="#BD0F33"/>
<path d="M18.4263 34.4342H18.9048C19.1341 34.4342 19.5462 34.4475 19.5561 34.9726C19.5628 35.5076 19.1241 35.5309 18.9646 35.5375H18.4296V34.4342M18.4263 35.8466H19.0178C19.4199 35.8466 19.5395 36.1091 19.5395 36.4148C19.5395 36.6175 19.5728 36.9997 19.6459 37.1924H20.0413V37.1227C19.9582 37.1227 19.935 36.9864 19.9217 36.9299C19.8885 36.7006 19.8685 36.478 19.8552 36.2487C19.8054 35.8399 19.709 35.7137 19.3135 35.6771V35.6704C19.6691 35.6206 19.8885 35.3647 19.9017 35.0058C19.9217 34.298 19.5129 34.1318 18.8716 34.1318H18.084V37.1958H18.4229V35.8499" fill="#BD0F33"/>
<path d="M19.0112 38.3125C20.4767 38.3125 21.6631 37.1262 21.6631 35.6607C21.6631 34.1951 20.4767 33.0088 19.0112 33.0088C17.5457 33.0088 16.3594 34.1951 16.3594 35.6607C16.3594 37.1262 17.5457 38.3125 19.0112 38.3125Z" stroke="#BD0F33" stroke-width="0.352191"/>
</g>
<defs>
<clipPath id="clip0_2436_206846">
<rect width="50" height="50" fill="white"/>
</clipPath>
</defs>
</svg>
